X:01
T: Paddy Fahy's
M: 4/4
L: 1/8
Z: Contributed 20020807053522 by Zina Lee zlee@ntw.net
K: Ddor
|:D2A,D FEFG|Add^c d2de|fedf edcA|dcAG FDD^C|
D2A,D FEFG|Add^c d2de|f2gf edcA|dcAG FDD2:|
|:d2 e daded|c2Gc EcGc|d2 e daded|cBcd edcA|
a2^ga ABcA|dcAG FDCE|D2DE FEFG|Add^c d2de:|
